!!!OTL: Suo ge
!!!ARE: Asia, China, Fujian, Chongan
!! II, 605
!!!SCT: C1535
!!!YEM: Copyright 1995, estate of Helmut Schaffrath.
**kern
*ICvox
*Ivox
!! 2+3 metric grouping
!! Mixed meters:  5/8; 4/8
*M4/8
*k[f#]
*G:
{8dd
16dd
16dd
8dd
4gg
=1
8gg
16ee
16dd
8dd
4ee
=2
16gg
16ee
16ee
16gg
8ee
4dd
=3
16ee
16dd
8ee
8dd
8dd
8r}
=4
{16dd
16dd
16dd
16ee
8dd
4gg
=5
8gg
16ee
16dd
8gg
4ee
=6
16gg
16gg
16ee
16gg
8ee
4dd
=7
16ee
16dd
8ee
8dd
8dd
8r}
=8
{8ee
8aa
8aa
8aa
8aa
=9
8ee
8aa
8gg
8gg
=10
*M5/8
16gg
16ee
16dd
16ee
8dd
8dd
8dd
=11
4gg
8.ee
16dd
8dd}
=12
{8dd
8gg
8gg
8gg
8gg
=13
8gg
16ee
16dd
8dd
4ee
=14
16gg
16ee
16dd
16ee
8dd
8dd
8dd
=15
8gg
8.ee
16dd
4dd}
==
!!!AGN: Shange. Caimi duichang
!!!AMT: irregular
!!!AIN: vox
!!!EED: Helmut Schaffrath
!!!EEV: 1.0
*-
